public/socials/twitter.svg

<svg xmlns="http://www.w3.org/2000/svg" viewBox="0 0 640 640"><path fill="#a7a7a8" d="M523.4 215.7c.3 4.5.3 9.1.3 13.6 0 138.7-105.6 298.6-298.6 298.6-59.5 0-114.7-17.2-161.1-47.1 8.4 1 16.6 1.3 25.3 1.3 49.1 0 94.2-16.6 130.3-44.8-46.1-1-84.8-31.2-98.1-72.8 6.5 1 13 1.6 19.8 1.6 9.4 0 18.8-1.3 27.6-3.6-48.1-9.7-84.1-52-84.1-103v-1.3c14 7.8 30.2 12.7 47.4 13.3-28.3-18.8-46.8-51-46.8-87.4 0-19.5 5.2-37.4 14.3-53 51.7 63.7 129.3 105.3 216.4 109.8-1.6-7.8-2.6-15.9-2.6-24 0-57.8 46.8-104.9 104.9-104.9 30.2 0 57.5 12.7 76.7 33.1 23.7-4.5 46.5-13.3 66.6-25.3-7.8 24.4-24.4 44.8-46.1 57.8 21.1-2.3 41.6-8.1 60.4-16.2-14.3 20.8-32.2 39.3-52.6 54.3"/></svg>

<svg xmlns="http://www.w3.org/2000/svg" viewBox="0 0 640 640"><!--!Font Awesome Free 7.2.0 by @fontawesome - https://fontawesome.com License - https://fontawesome.com/license/free Copyright 2026 Fonticons, Inc.--><path fill="#a7a7a8" d="M523.4 215.7C523.7 220.2 523.7 224.8 523.7 229.3C523.7 368 418.1 527.9 225.1 527.9C165.6 527.9 110.4 510.7 64 480.8C72.4 481.8 80.6 482.1 89.3 482.1C138.4 482.1 183.5 465.5 219.6 437.3C173.5 436.3 134.8 406.1 121.5 364.5C128 365.5 134.5 366.1 141.3 366.1C150.7 366.1 160.1 364.8 168.9 362.5C120.8 352.8 84.8 310.5 84.8 259.5L84.8 258.2C98.8 266 115 270.9 132.2 271.5C103.9 252.7 85.4 220.5 85.4 184.1C85.4 164.6 90.6 146.7 99.7 131.1C151.4 194.8 229 236.4 316.1 240.9C314.5 233.1 313.5 225 313.5 216.9C313.5 159.1 360.3 112 418.4 112C448.6 112 475.9 124.7 495.1 145.1C518.8 140.6 541.6 131.8 561.7 119.8C553.9 144.2 537.3 164.6 515.6 177.6C536.7 175.3 557.2 169.5 576 161.4C561.7 182.2 543.8 200.7 523.4 215.7z"/></svg>
